images/YouTube.svg

<svg width="28" height="28" viewBox="0 0 28 28" fill="none" xmlns="http://www.w3.org/2000/svg">
<rect width="28" height="28" rx="14" fill="#FF0000"/>
<path fill-rule="evenodd" clip-rule="evenodd" d="M20.8471 8.24979C21.5967 8.4516 22.1877 9.04262 22.3895 9.79221C22.7643 11.1616 22.7499 14.0158 22.7499 14.0158C22.7499 14.0158 22.7499 16.8556 22.3895 18.225C22.1877 18.9746 21.5967 19.5656 20.8471 19.7675C19.4777 20.1278 14 20.1278 14 20.1278C14 20.1278 8.53664 20.1278 7.15279 19.753C6.40321 19.5512 5.81219 18.9602 5.61038 18.2106C5.25 16.8556 5.25 14.0014 5.25 14.0014C5.25 14.0014 5.25 11.1616 5.61038 9.79221C5.81219 9.04262 6.41762 8.43719 7.15279 8.23538C8.52223 7.875 14 7.875 14 7.875C14 7.875 19.4777 7.875 20.8471 8.24979ZM16.8112 14.002L12.2561 16.6256V11.3785L16.8112 14.002Z" fill="white"/>
</svg>

<svg xmlns="http://www.w3.org/2000/svg" width="28" height="28" fill="none"><rect width="28" height="28" fill="red" rx="14"/><path fill="#fff" fill-rule="evenodd" d="M20.847 8.25c.75.202 1.34.793 1.543 1.542.374 1.37.36 4.224.36 4.224s0 2.84-.36 4.209a2.19 2.19 0 0 1-1.543 1.542c-1.37.36-6.847.36-6.847.36s-5.463 0-6.847-.374a2.19 2.19 0 0 1-1.543-1.542C5.25 16.856 5.25 14 5.25 14s0-2.84.36-4.209a2.24 2.24 0 0 1 1.543-1.557c1.37-.36 6.847-.36 6.847-.36s5.478 0 6.847.375m-4.036 5.752-4.555 2.624v-5.248z" clip-rule="evenodd"/></svg>
